shader_type canvas_item;

uniform float brightness = 1.0;

void vertex() {
	// Called for every vertex the material is visible on.
}

void fragment() {
	COLOR.rgb *= brightness;
}

//void light() {
	// Called for every pixel for every light affecting the CanvasItem.
	// Uncomment to replace the default light processing function with this one.
//}
